dhis-2/dhis-support/dhis-support-system/src/main/resources/SVGs/family_planning_negative.svg

<?xml version="1.0" encoding="UTF-8" standalone="no"?>
<!-- Created with Inkscape (http://www.inkscape.org/) -->
<svg id="svg8" xmlns:rdf="http://www.w3.org/1999/02/22-rdf-syntax-ns#" xmlns="http://www.w3.org/2000/svg" xmlns:osb="http://www.openswatchbook.org/uri/2009/osb" height="48" width="48" version="1.1" xmlns:cc="http://creativecommons.org/ns#" viewBox="0 0 12.7 12.7" xmlns:dc="http://purl.org/dc/elements/1.1/">
 <title id="title4753">UIO-icon</title>
 <metadata id="metadata5">
  <rdf:RDF>
   <cc:Work rdf:about="">
    <dc:format>image/svg+xml</dc:format>
    <dc:type rdf:resource="http://purl.org/dc/dcmitype/StillImage"/>
    <dc:title>UIO-icon</dc:title>
    <dc:creator>
     <cc:Agent>
      <dc:title>Joaquín Urbano</dc:title>
     </cc:Agent>
    </dc:creator>
    <dc:rights>
     <cc:Agent>
      <dc:title>GPL</dc:title>
     </cc:Agent>
    </dc:rights>
   </cc:Work>
  </rdf:RDF>
 </metadata>
 <g id="layer1" transform="translate(0,-284.3)">
  <path id="rect1876" d="m0 0v48h48v-48zm13.689 8.0977c1.933-3.5e-8 3.5 1.567 3.5 3.5 3e-8 1.933-1.567 3.5-3.5 3.5-1.933 3e-8 -3.5-1.567-3.5-3.5-1e-8 -1.933 1.567-3.5 3.5-3.5zm10.586 0c0.72131 0.010557 1.4268 0.16011 2.0801 0.43555 0.65324 0.27544 1.253 0.67732 1.7637 1.1895 0.53857 0.5401 0.94222 1.1628 1.2109 1.8281 0.26872 0.66528 0.40334 1.3714 0.40234 2.0781-0.00099526 0.70674-0.13762 1.4156-0.4082 2.0801-0.27058 0.66451-0.6748 1.2857-1.2148 1.8242-0.54011 0.53857-1.1647 0.94212-1.8301 1.2109-0.6654 0.26882-1.3732 0.40313-2.0801 0.40234-0.70691-0.00078388-1.4135-0.13602-2.0781-0.40625-0.665-0.27-1.286-0.675-1.824-1.215-0.539-0.54-0.944-1.164-1.213-1.83-0.26873-0.66541-0.40333-1.3712-0.40234-2.0781 0.00098684-0.70691 0.13761-1.4135 0.4082-2.0781 0.27059-0.66463 0.67672-1.2876 1.2168-1.8262 0.50885-0.5074 1.1075-0.90586 1.7578-1.1797 0.6503-0.27383 1.3518-0.42414 2.0703-0.43359 0.046807-0.000528 0.094106-0.00063345 0.14062 0zm10.451 0c1.933 0 3.5 1.567 3.5 3.5s-1.567 3.5-3.5 3.5-3.5-1.567-3.5-3.5 1.567-3.5 3.5-3.5zm-10.538 1.1289c-0.48419 0.0013228-0.96166 0.083637-1.4141 0.24023-0.4524 0.1566-0.88006 0.38713-1.2637 0.68555l6.1562 6.1758c0.34173-0.4368 0.58824-0.91994 0.74219-1.4238 0.15395-0.50389 0.21634-1.0279 0.18555-1.5469-0.031-0.519-0.155-1.031-0.367-1.513-0.213-0.482-0.514-0.933-0.905-1.326-0.391-0.392-0.85-0.7041-1.349-0.9223s-1.039-0.3437-1.592-0.3652c-0.065-0.0019-0.129-0.002-0.193-0.002zm2.123 1.498v0.001953c0.3144 0.001875 0.57191 0.068567 0.66016 0.16016 0.10602 0.06648 0.17656 0.27747 0.18945 0.54883 0.012893 0.27136-0.032 0.60456-0.1582 0.91406s-0.33521 0.59644-0.64648 0.77734c-0.31128 0.1809-0.72526 0.25507-1.2676 0.14062-0.011217 0.030108-0.030852 0.041016-0.054688 0.041016l-0.54102-0.53125c0.003906-0.050672 0.032242-0.086333 0.080078-0.11328-0.062558-0.38098-0.035797-0.69363 0.052734-0.94727 0.088532-0.25363 0.23908-0.44821 0.42188-0.5957 0.3656-0.29498 0.86193-0.39885 1.2637-0.39648zm-5.5625 0.19141c-0.34173 0.43679-0.59032 0.9219-0.74414 1.4258-0.15382 0.50388-0.2126 1.0279-0.18164 1.5469 0.030958 0.51898 0.15263 1.0316 0.36523 1.5137 0.2126 0.48208 0.51513 0.93299 0.90625 1.3262 0.39204 0.39246 0.84269 0.69795 1.3242 0.91211 0.48153 0.21416 0.99468 0.33855 1.5137 0.37109 0.51899 0.032553 1.0424-0.027327 1.5469-0.17969 0.50444-0.15236 0.98987-0.39771 1.4277-0.73828zm2.2109 2.7129 0.52539 0.50195c0.14391 0.55885 0.11083 0.90481-0.027344 1.123-0.13817 0.21824-0.38168 0.30974-0.65625 0.36328-0.53625-0.001323-0.83495 0.028891-1.0195 0.14844-0.18458 0.11955-0.25359 0.32904-0.33203 0.68555-0.005371-0.25015-0.044026-0.54478 0.10742-0.77539s0.49153-0.39761 1.2441-0.39258c0.16772-0.036949 0.23205-0.14307 0.24023-0.28516 0.008181-0.14209-0.039096-0.32034-0.091797-0.50195s-0.11007-0.36596-0.125-0.52148c-0.014925-0.15553 0.013256-0.28186 0.13477-0.3457zm-9.6172 2.3301h3.875v0.007813c0.57534 0.007483 1.124 0.32655 1.3945 0.88086l3.8164 7.8164h3.5586l3.8164-7.8164c0.26937-0.552 0.81597-0.86757 1.3887-0.87891v-0.007813l3.1875-0.001953h3.875v0.007813c0.57533 0.007483 1.124 0.32655 1.3945 0.88086l3.8691 7.9258c0.38289 0.78459 0.059979 1.7245-0.72461 2.1074-0.78459 0.38287-1.7245 0.059983-2.1074-0.72461-5.1143-10.479-1.4634 0.91845-0.21094 5.0938h-2.2207v7.1113c0 0.87303-0.70314 1.5762-1.5762 1.5762-0.87303 0-1.5762-0.70314-1.5762-1.5762v-7.112h-0.75977v7.1113c0 0.87303-0.70314 1.5762-1.5762 1.5762-0.87303 0-1.5742-0.70314-1.5742-1.5762v-7.111h-1.4551c-0.095982 0.15097-0.21752 0.28662-0.39062 0.37109-0.49977 0.24388-1.0979 0.036884-1.3418-0.46289l-1.551-3.174v10.949c1e-8 0.55611-0.4478 1.0039-1.0039 1.0039-0.55611 0-1.0039-0.4478-1.0039-1.0039v-5.9043h-0.48438v5.9043c4e-8 0.55611-0.4478 1.0039-1.0039 1.0039-0.55611 0-1.0039-0.4478-1.0039-1.0039v-10.941l-1.5449 3.166c-0.2439 0.49985-0.84007 0.70679-1.3398 0.46289-0.49977-0.24388-0.70679-0.844-0.46289-1.3438l1.6797-3.4414c-0.267-0.151-0.493-0.382-0.639-0.68l-2.4316-4.9824v17.188c0 0.87303-0.70314 1.5762-1.5762 1.5762-0.87303 0-1.5762-0.70314-1.5762-1.5762v-9.268h-0.75977v9.2676c0 0.87303-0.70314 1.5762-1.5762 1.5762-0.87303 0-1.5742-0.70314-1.5742-1.5762v-17.176l-2.4255 4.97c-0.38289 0.78471-1.3209 1.1075-2.1055 0.72461-0.78459-0.38287-1.1095-1.3229-0.72656-2.1074l3.8692-7.925c0.26937-0.552 0.81597-0.86757 1.3887-0.87891v-0.008zm10.865 3.697c1.2313-0.00056113 2.23 0.99719 2.2305 2.2285 0.0005615 1.2321-0.99838 2.231-2.2305 2.2305-1.2313-0.00051756-2.2291-0.99915-2.2285-2.2305 0.00051726-1.2306 0.99795-2.228 2.2285-2.2285zm-0.042969 0.50195c-0.96368-0.00023437-1.7452 0.78047-1.7461 1.7441-0.00023424 0.96444 0.78166 1.7463 1.7461 1.7461 0.96368-0.00084415 1.7444-0.78242 1.7441-1.7461-0.001-0.963-0.781-1.743-1.744-1.744zm6.832 1.639c-0.30381-0.050311-0.98302 1.1004-2.2305 4.3594-0.14525 0.29767-0.37039 0.52826-0.63672 0.67969l1.4941 3.0625c0.89499-2.0682 2.0414-7.9909 1.373-8.1016zm-4.746 3.4l-4.1094 0.007813c-0.495-0.014-0.522 0.074-0.641 0.316l-0.508 1.026s-0.23476 0.49828-0.24023 0.50977l-1.65 3.388c-0.15928 0.32267-0.016039 0.5868 0.13477 0.67969 0.1202 0.070162 0.52886 0.17996 0.72266-0.20508 0.63739-1.3127 0.91848-1.9377 1.5312-3.1484 0.32786-0.54345 0.89805-0.52582 0.97852 0.2207-0.000402 1.5499-0.00019738 3.6484-0.005859 5.0547-0.007572 1.8807-0.003906 3.6861-0.003906 5.8867-1e-8 0.35984 0.36012 0.49189 0.51953 0.49023 0.16099-0.00167 0.4707-0.12454 0.4707-0.48438 0.013256-2.0938 0-4.3227 0-6.4219l1.5117 0.003906c-0.009779 2.0907 0.001953 4.3048 0.001953 6.4043-0.00003117 0.22679 0.20003 0.486 0.50977 0.49414 0.30745-0.007894 0.4824-0.27876 0.4707-0.47656 0.003318-1.9015-0.031304-3.8265 0.001953-5.7871 0.029925-1.7642-0.004557-3.537-0.003906-5.1719-0.007827-0.64797 0.632-0.91968 0.97461-0.22852 0.64745 1.2749 0.8967 1.8613 1.5703 3.252 0.1172 0.20829 0.42132 0.34539 0.67383 0.20703 0.29506-0.17025 0.36631-0.46053 0.20703-0.7832l-1.9004-3.8496c-0.005471-0.011716-0.015473-0.015854-0.021484-0.027344l-0.51562-1.043c-0.11093-0.22471-0.12593-0.30814-0.35938-0.31445z" fill-rule="evenodd" transform="matrix(.26458 0 0 .26458 0 284.3)" fill="#333"/>
 </g>
</svg>

<svg width="48" height="48" viewBox="0 0 48 48" fill="none" xmlns="http://www.w3.org/2000/svg">
<path fill-rule="evenodd" clip-rule="evenodd" d="M0 0V47.9994H47.9994V0H0ZM13.6888 8.0976C15.6218 8.0976 17.1888 9.66458 17.1888 11.5976C17.1888 13.5305 15.6218 15.0975 13.6888 15.0975C11.7559 15.0975 10.1889 13.5305 10.1889 11.5976C10.1889 9.66458 11.7559 8.0976 13.6888 8.0976ZM24.2747 8.0976C24.996 8.10816 25.7015 8.25771 26.3548 8.53314C27.008 8.80858 27.6078 9.21045 28.1184 9.72263C28.657 10.2627 29.0607 10.8854 29.3293 11.5507C29.598 12.216 29.7327 12.9221 29.7317 13.6288C29.7307 14.3355 29.594 15.0444 29.3235 15.7089C29.0529 16.3734 28.6487 16.9945 28.1087 17.533C27.5686 18.0716 26.944 18.4751 26.2786 18.7439C25.6132 19.0127 24.9054 19.147 24.1985 19.1463C23.4916 19.1455 22.7851 19.0102 22.1205 18.74C21.4555 18.47 20.8345 18.065 20.2965 17.525C19.7575 16.985 19.3525 16.361 19.0835 15.695C18.8148 15.0296 18.6802 14.3239 18.6812 13.617C18.6822 12.9101 18.8188 12.2035 19.0894 11.5389C19.3599 10.8743 19.7661 10.2513 20.3061 9.71272C20.815 9.20533 21.4136 8.80687 22.0639 8.53303C22.7142 8.25921 23.4157 8.1089 24.1342 8.09945C24.181 8.09892 24.2283 8.09882 24.2748 8.09945L24.2747 8.0976ZM34.7256 8.0976C36.6585 8.0976 38.2255 9.66458 38.2255 11.5976C38.2255 13.5305 36.6585 15.0975 34.7256 15.0975C32.7926 15.0975 31.2256 13.5305 31.2256 11.5976C31.2256 9.66458 32.7926 8.0976 34.7256 8.0976ZM24.1877 9.22648C23.7035 9.22781 23.226 9.31012 22.7736 9.46671C22.3212 9.62331 21.8936 9.85384 21.5099 10.1523L27.6661 16.328C28.0078 15.8912 28.2543 15.408 28.4082 14.9042C28.5622 14.4003 28.6246 13.8763 28.5938 13.3573C28.5628 12.8383 28.4388 12.3263 28.2268 11.8443C28.0138 11.3623 27.7128 10.9113 27.3218 10.5183C26.9308 10.1264 26.4718 9.81426 25.9728 9.59606C25.4738 9.37786 24.9338 9.25236 24.3808 9.23086C24.3158 9.22896 24.2518 9.22886 24.1878 9.22886L24.1877 9.22648ZM26.3107 10.7245V10.7264C26.6251 10.7283 26.8826 10.795 26.9708 10.8866C27.0768 10.9531 27.1474 11.164 27.1603 11.4354C27.1732 11.7068 27.1283 12.04 27.0021 12.3494C26.8759 12.6589 26.6669 12.9459 26.3556 13.1268C26.0443 13.3077 25.6303 13.3818 25.088 13.2674C25.0768 13.2975 25.0572 13.3084 25.0333 13.3084L24.4923 12.7772C24.4962 12.7265 24.5246 12.6908 24.5724 12.6639C24.5098 12.2829 24.5366 11.9703 24.6251 11.7166C24.7137 11.463 24.8642 11.2684 25.047 11.1209C25.4126 10.826 25.9089 10.7221 26.3107 10.7245ZM20.7482 10.9159C20.4065 11.3527 20.1579 11.8378 20.0041 12.3417C19.8503 12.8455 19.7915 13.3695 19.8225 13.8885C19.8534 14.4075 19.9751 14.9201 20.1877 15.4022C20.4003 15.8843 20.7028 16.3352 21.0939 16.7284C21.486 17.1209 21.9366 17.4263 22.4181 17.6405C22.8996 17.8547 23.4128 17.979 23.9318 18.0116C24.4508 18.0441 24.9742 17.9843 25.4787 17.8319C25.9831 17.6795 26.4685 17.4342 26.9064 17.0936L20.7482 10.9159ZM22.9591 13.6287L23.4845 14.1307C23.6284 14.6895 23.5953 15.0355 23.4572 15.2537C23.319 15.4719 23.0755 15.5634 22.8009 15.6169C22.2647 15.6156 21.966 15.6458 21.7814 15.7654C21.5968 15.8849 21.5278 16.0944 21.4494 16.4509C21.444 16.2008 21.4054 15.9062 21.5568 15.6755C21.7083 15.4449 22.0483 15.2779 22.8009 15.283C22.9686 15.246 23.0329 15.1399 23.0411 14.9978C23.0493 14.8557 23.002 14.6775 22.9493 14.4959C22.8966 14.3143 22.8393 14.1299 22.8243 13.9744C22.8094 13.8189 22.8376 13.6925 22.9591 13.6287ZM13.342 15.9588H17.217V15.9666C17.7923 15.9741 18.341 16.2932 18.6115 16.8475L22.4278 24.6638H25.9864L29.8027 16.8475C30.0721 16.2955 30.6187 15.9799 31.1914 15.9686V15.9608L34.3789 15.9588H38.2538V15.9666C38.8291 15.9741 39.3778 16.2932 39.6483 16.8475L43.5174 24.7732C43.9002 25.5577 43.5773 26.4976 42.7928 26.8805C42.0082 27.2634 41.0683 26.9405 40.6854 26.1559C35.5711 15.6771 39.222 27.0744 40.4744 31.2497H38.2538V38.3609C38.2538 39.2339 37.5506 39.9371 36.6776 39.9371C35.8046 39.9371 35.1014 39.2339 35.1014 38.3609V31.249H34.3417V38.3602C34.3417 39.2332 33.6385 39.9364 32.7655 39.9364C31.8925 39.9364 31.1913 39.2332 31.1913 38.3602V31.2493H29.7362C29.6402 31.4002 29.5187 31.5359 29.3456 31.6204C28.8458 31.8642 28.2477 31.6572 28.0038 31.1575L26.4528 27.9835V38.9324C26.4528 39.4885 26.005 39.9363 25.4489 39.9363C24.8928 39.9363 24.4451 39.4885 24.4451 38.9324V33.0282H23.9607V38.9324C23.9607 39.4885 23.5129 39.9363 22.9568 39.9363C22.4007 39.9363 21.9529 39.4885 21.9529 38.9324V27.9915L20.408 31.1575C20.1641 31.6573 19.568 31.8643 19.0682 31.6204C18.5685 31.3765 18.3615 30.7764 18.6054 30.2766L20.285 26.8352C20.018 26.6842 19.792 26.4532 19.646 26.1552L17.2145 21.1729V38.3607C17.2145 39.2337 16.5113 39.9369 15.6383 39.9369C14.7653 39.9369 14.0621 39.2337 14.0621 38.3607V29.0928H13.3024V38.3603C13.3024 39.2333 12.5992 39.9365 11.7262 39.9365C10.8532 39.9365 10.152 39.2333 10.152 38.3603V21.1845L7.72652 26.1544C7.34364 26.9391 6.40564 27.2619 5.62105 26.879C4.83647 26.4962 4.51156 25.5561 4.8945 24.7717L8.76365 16.8468C9.03302 16.2948 9.57961 15.9792 10.1523 15.9679V15.9599L13.342 15.9588ZM24.2069 19.6558C25.4382 19.6552 26.4369 20.6529 26.4374 21.8842C26.4379 23.1163 25.439 24.1152 24.2069 24.1147C22.9756 24.1142 21.9778 23.1156 21.9784 21.8842C21.9789 20.6537 22.9764 19.6563 24.2069 19.6558ZM24.1639 20.1577C23.2003 20.1575 22.4187 20.9382 22.4178 21.9018C22.4176 22.8662 23.1995 23.6481 24.1639 23.6479C25.1276 23.647 25.9083 22.8655 25.908 21.9018C25.907 20.9388 25.127 20.1588 24.164 20.1578L24.1639 20.1577ZM30.9958 21.7967C30.692 21.7464 30.0128 22.8971 28.7654 26.156C28.6201 26.4537 28.395 26.6843 28.1287 26.8357L29.6227 29.8982C30.5177 27.83 31.6641 21.9074 30.9957 21.7967H30.9958ZM26.2499 25.1966L22.1406 25.2045C21.6456 25.1905 21.6186 25.2785 21.4996 25.5205L20.9916 26.5464C20.9916 26.5464 20.7568 27.0447 20.7513 27.0562L19.1014 30.4442C18.9421 30.7668 19.0853 31.031 19.2361 31.1238C19.3563 31.194 19.765 31.3038 19.9588 30.9188C20.5962 29.6061 20.8772 28.9811 21.49 27.7704C21.8178 27.227 22.388 27.2446 22.4685 27.9911C22.4681 29.541 22.4683 31.6395 22.4626 33.0457C22.455 34.9264 22.4587 36.7318 22.4587 38.9324C22.4587 39.2922 22.8188 39.4243 22.9782 39.4226C23.1392 39.4209 23.4489 39.298 23.4489 38.9382C23.4622 36.8444 23.4489 34.6156 23.4489 32.5164L24.9606 32.5203C24.9508 34.611 24.9626 36.825 24.9626 38.9245C24.9625 39.1513 25.1626 39.4105 25.4723 39.4187C25.7798 39.4108 25.9547 39.1399 25.943 38.9421C25.9463 37.0406 25.9117 35.1157 25.945 33.1551C25.9749 31.3909 25.9404 29.6181 25.9411 27.9832C25.9332 27.3353 26.5731 27.0636 26.9157 27.7547C27.5631 29.0296 27.8123 29.616 28.4859 31.0067C28.6031 31.215 28.9073 31.3521 29.1598 31.2137C29.4548 31.0435 29.5261 30.7532 29.3668 30.4305L27.4664 26.581C27.4609 26.5692 27.4509 26.5651 27.4449 26.5536L26.9293 25.5106C26.8184 25.2859 26.8034 25.2025 26.5699 25.1962L26.2499 25.1966Z" fill="#333333"/>
</svg>
